X: 26229
T: Meelick Team, The
R: jig
M: 6/8
K: Eminor
(e/f/g)e dBA|BAF EDB,|EFG Eed|BAF GAB|
(e/f/g)e dBA|BAF EDB,|EFG Eed|BAF E3:|:
e2 f ged|beg fed|Beg beg|fed e2 f|
~g3 edB|AGF EDB,|EFG Eed|BAF E3:|

